src/assets/img/icons/dark/icon-technologies-rust.svg

<svg width="100" height="100" viewBox="0 0 100 100" fill="none" xmlns="http://www.w3.org/2000/svg">
<path d="M99.3145 48.5862L95.117 45.9975C95.082 45.59 95.042 45.1837 94.997 44.7787L98.6058 41.4262C98.7863 41.2595 98.921 41.0492 98.997 40.8155C99.0729 40.5817 99.0876 40.3324 99.0395 40.0914C98.9915 39.8504 98.8823 39.6257 98.7226 39.439C98.5628 39.2523 98.3577 39.1097 98.127 39.025L93.5145 37.3075C93.3995 36.91 93.277 36.515 93.1533 36.1225L96.0308 32.1412C96.1743 31.9424 96.2645 31.7102 96.293 31.4667C96.3214 31.2232 96.2871 30.9765 96.1933 30.75C96.0986 30.5232 95.9476 30.3244 95.7547 30.1722C95.5618 30.02 95.3333 29.9194 95.0908 29.88L90.227 29.0925C90.0375 28.7266 89.8425 28.3637 89.642 28.0037L91.6858 23.535C91.7884 23.3116 91.832 23.0655 91.8124 22.8205C91.7928 22.5754 91.7106 22.3394 91.5738 22.1352C91.437 21.9309 91.2501 21.7651 91.0309 21.6537C90.8118 21.5423 90.5677 21.4889 90.322 21.4987L85.3858 21.6712C85.1307 21.353 84.8707 21.0388 84.6058 20.7287L85.7408 15.94C85.7977 15.7008 85.7922 15.451 85.7248 15.2146C85.6574 14.9782 85.5303 14.7631 85.3558 14.59C85.1812 14.4165 84.9653 14.2903 84.7285 14.2234C84.4916 14.1565 84.2416 14.151 84.002 14.2075L79.1958 15.3362C78.8833 15.0737 78.5683 14.8137 78.2483 14.56L78.4208 9.64373C78.4277 9.3985 78.3721 9.15554 78.2594 8.93766C78.1466 8.71979 77.9803 8.53415 77.7761 8.39818C77.5719 8.26221 77.3365 8.18038 77.092 8.16035C76.8475 8.14033 76.6019 8.18279 76.3783 8.28373L71.8933 10.32C71.5314 10.1211 71.1672 9.92648 70.8008 9.73623L70.0083 4.89123C69.9673 4.64913 69.8655 4.42142 69.7123 4.22948C69.5592 4.03754 69.3598 3.88767 69.1329 3.79394C68.9059 3.70021 68.6589 3.6657 68.4149 3.69365C68.171 3.7216 67.9381 3.8111 67.7383 3.95373L63.7383 6.81998C63.3458 6.69498 62.9508 6.57623 62.5508 6.46123L60.8258 1.86623C60.7397 1.63589 60.596 1.43144 60.4085 1.27236C60.221 1.11328 59.9958 1.00488 59.7545 0.957478C59.5134 0.910055 59.2642 0.924632 59.0303 0.999842C58.7963 1.07505 58.5853 1.20843 58.417 1.38748L55.052 4.98498C54.6447 4.93922 54.2367 4.89922 53.8283 4.86498L51.2295 0.682478C51.0997 0.473717 50.9188 0.301496 50.7039 0.182081C50.489 0.0626667 50.2472 0 50.0014 0C49.7556 0 49.5138 0.0626667 49.2989 0.182081C49.084 0.301496 48.9031 0.473717 48.7733 0.682478L46.1745 4.86498C45.7658 4.89873 45.357 4.93998 44.9495 4.98498L41.5858 1.38748C41.4174 1.20853 41.2064 1.07521 40.9725 1.00001C40.7386 0.924809 40.4894 0.910174 40.2483 0.957478C40.0069 1.00491 39.7816 1.11331 39.5938 1.27237C39.4061 1.43143 39.2622 1.63586 39.1758 1.86623L37.4508 6.46123C37.0535 6.57611 36.6577 6.6957 36.2633 6.81998L32.2645 3.95498C32.065 3.81101 31.8321 3.72036 31.5877 3.69163C31.3434 3.6629 31.0957 3.69703 30.8683 3.7908C30.6408 3.88456 30.441 4.03485 30.2879 4.22743C30.1348 4.42 30.0334 4.64849 29.9933 4.89123L29.2008 9.73623C28.8333 9.92623 28.4708 10.1212 28.1083 10.32L23.6233 8.28248C23.3996 8.18076 23.1537 8.13775 22.9088 8.15751C22.6639 8.17727 22.4281 8.25914 22.2237 8.3954C22.0192 8.53166 21.8529 8.7178 21.7404 8.93623C21.6279 9.15465 21.573 9.39816 21.5808 9.64373L21.7533 14.56C21.4333 14.8137 21.117 15.0725 20.8058 15.3362L15.9983 14.2075C15.5108 14.095 14.9983 14.2387 14.6445 14.5912C14.2895 14.9437 14.1445 15.4537 14.2595 15.94L15.392 20.7287C15.1295 21.0387 14.8695 21.3537 14.6145 21.6712L9.67703 21.5C9.43183 21.4922 9.18865 21.5466 8.97011 21.6581C8.75156 21.7695 8.56475 21.9345 8.42703 22.1375C8.28978 22.3411 8.20723 22.5766 8.18731 22.8213C8.16739 23.0661 8.21077 23.3118 8.31328 23.535L10.357 28.0037C10.1583 28.3625 9.96203 28.7237 9.77203 29.0912L4.90953 29.8787C4.667 29.9174 4.43841 30.0176 4.24554 30.1697C4.05268 30.3218 3.90195 30.5207 3.80771 30.7475C3.71348 30.9743 3.67888 31.2214 3.70721 31.4654C3.73553 31.7094 3.82584 31.942 3.96953 32.1412L6.84453 36.1225C6.71953 36.515 6.59828 36.91 6.48453 37.3075L1.87203 39.025C1.64198 39.1104 1.43761 39.2533 1.27834 39.44C1.11908 39.6267 1.01022 39.851 0.962117 40.0917C0.914013 40.3323 0.928263 40.5813 1.00351 40.8149C1.07876 41.0485 1.21251 41.2589 1.39203 41.4262L5.00078 44.7787C4.95578 45.1837 4.91578 45.5912 4.88203 45.9975L0.683284 48.585C0.474429 48.7137 0.301994 48.8937 0.182392 49.1079C0.0627896 49.3221 0 49.5634 0 49.8087C0 50.0541 0.0627896 50.2953 0.182392 50.5095C0.301994 50.7237 0.474429 50.9038 0.683284 51.0325L4.88203 53.6212C4.91578 54.0287 4.95703 54.4337 5.00078 54.84L1.39203 58.1925C1.21178 58.3592 1.07734 58.5695 1.00156 58.803C0.925793 59.0366 0.91123 59.2857 0.959268 59.5266C1.00731 59.7674 1.11634 59.9918 1.27593 60.1785C1.43553 60.3651 1.64034 60.5076 1.87078 60.5925L6.48328 62.31C6.59828 62.7087 6.72078 63.1037 6.84578 63.4962L3.96828 67.4775C3.82448 67.6761 3.73402 67.9083 3.70557 68.1519C3.67712 68.3955 3.71163 68.6423 3.80578 68.8687C3.99828 69.3312 4.41578 69.66 4.90953 69.7387L9.77203 70.5262C9.96203 70.8937 10.157 71.2562 10.357 71.6162L8.31328 76.0825C8.21174 76.3061 8.16901 76.5519 8.18915 76.7967C8.2093 77.0414 8.29165 77.277 8.42839 77.4809C8.56513 77.6849 8.75173 77.8506 8.97048 77.9622C9.18923 78.0738 9.43287 78.1277 9.67828 78.1187L14.612 77.9462C14.8695 78.2662 15.1283 78.5787 15.392 78.89L14.2595 83.68C14.2042 83.9192 14.2108 84.1686 14.2787 84.4045C14.3467 84.6404 14.4737 84.8551 14.6478 85.0282C14.8219 85.2013 15.0373 85.3271 15.2737 85.3937C15.51 85.4603 15.7594 85.4655 15.9983 85.4087L20.8058 84.2812C21.1183 84.545 21.4333 84.8025 21.7533 85.0562L21.5808 89.9725C21.562 90.4712 21.8058 90.9425 22.222 91.2212C22.637 91.4975 23.1683 91.54 23.6233 91.3325L28.1083 89.2962C28.4708 89.4962 28.8333 89.69 29.2008 89.88L29.9933 94.7225C30.0733 95.215 30.4045 95.6325 30.867 95.8225C31.3295 96.0125 31.8583 95.9512 32.2645 95.66L36.2608 92.7925C36.6545 92.9175 37.052 93.04 37.4508 93.1537L39.1758 97.7462C39.3508 98.2125 39.7558 98.5587 40.247 98.6537C40.4881 98.7025 40.7377 98.6886 40.9719 98.6133C41.2061 98.538 41.417 98.4039 41.5845 98.2237L44.9508 94.6287C45.357 94.675 45.7658 94.715 46.1758 94.7512L48.7733 98.9325C48.9033 99.1409 49.0843 99.3129 49.2992 99.4321C49.514 99.5513 49.7557 99.6138 50.0014 99.6138C50.2471 99.6138 50.4888 99.5513 50.7036 99.4321C50.9185 99.3129 51.0995 99.1409 51.2295 98.9325L53.8295 94.7512C54.2383 94.7137 54.6458 94.6762 55.052 94.6287L58.417 98.2237C58.7583 98.5887 59.2645 98.7525 59.7545 98.6537C60.247 98.5575 60.652 98.2125 60.827 97.7462L62.552 93.1537C62.9508 93.04 63.347 92.9175 63.742 92.7925L67.7383 95.66C67.9381 95.8032 68.1712 95.8933 68.4154 95.9217C68.6596 95.9502 68.9071 95.916 69.1345 95.8225C69.597 95.6325 69.9283 95.2137 70.0083 94.7225L70.8008 89.88C71.1683 89.69 71.5308 89.4925 71.8933 89.2962L76.3783 91.3325C76.6018 91.4342 76.8476 91.4772 77.0924 91.4575C77.3372 91.4378 77.5729 91.356 77.7773 91.2199C77.9818 91.0838 78.1481 90.8978 78.2607 90.6796C78.3733 90.4613 78.4284 90.2179 78.4208 89.9725L78.2495 85.055C78.5683 84.8012 78.8845 84.545 79.1958 84.28L84.002 85.4087C84.2409 85.4656 84.4903 85.4605 84.7266 85.3939C84.9629 85.3273 85.1783 85.2015 85.3523 85.0283C85.5264 84.8552 85.6533 84.6404 85.7211 84.4044C85.7888 84.1685 85.7952 83.9191 85.7395 83.68L84.6083 78.89C84.872 78.5787 85.132 78.265 85.3858 77.9462L90.322 78.1187C90.5675 78.1278 90.8111 78.074 91.0299 77.9624C91.2487 77.8508 91.4353 77.6851 91.5719 77.481C91.7086 77.277 91.7908 77.0413 91.8107 76.7966C91.8307 76.5518 91.7876 76.306 91.6858 76.0825L89.642 71.6162C89.842 71.2562 90.0383 70.8937 90.227 70.5262L95.0895 69.7387C95.3324 69.7005 95.5613 69.6007 95.7546 69.4487C95.9478 69.2968 96.0988 69.0978 96.1933 68.8709C96.2877 68.6439 96.3223 68.3965 96.2939 68.1524C96.2654 67.9082 96.1748 67.6754 96.0308 67.4762L93.1533 63.4962C93.2783 63.1037 93.3995 62.7087 93.5158 62.31L98.127 60.5925C98.3575 60.5076 98.5623 60.3651 98.7219 60.1785C98.8815 59.9918 98.9905 59.7674 99.0386 59.5266C99.0866 59.2857 99.072 59.0366 98.9962 58.803C98.9205 58.5695 98.786 58.3592 98.6058 58.1925L94.9983 54.84C95.042 54.435 95.082 54.0275 95.117 53.6212L99.3158 51.0325C99.5249 50.9041 99.6977 50.7243 99.8176 50.5102C99.9374 50.296 100 50.0547 100 49.8093C100 49.564 99.9374 49.3227 99.8176 49.1085C99.6977 48.8944 99.5249 48.7146 99.3158 48.5862H99.3145ZM71.217 83.2762C70.8293 83.202 70.4603 83.051 70.1317 82.8321C69.8031 82.6133 69.5215 82.331 69.3035 82.0018C69.0855 81.6727 68.9355 81.3033 68.8622 80.9153C68.789 80.5274 68.794 80.1287 68.8769 79.7427C68.9598 79.3567 69.1191 78.9912 69.3452 78.6676C69.5714 78.344 69.8599 78.0688 70.1939 77.8583C70.5279 77.6477 70.9006 77.506 71.29 77.4415C71.6795 77.377 72.078 77.3909 72.462 77.4825C72.8425 77.5642 73.2031 77.7201 73.5232 77.9412C73.8434 78.1623 74.1169 78.4443 74.3281 78.7711C74.5393 79.0979 74.6841 79.4631 74.7541 79.8459C74.8242 80.2286 74.8182 80.6214 74.7364 81.0019C74.6547 81.3823 74.4988 81.7429 74.2777 82.0631C74.0566 82.3832 73.7746 82.6567 73.4478 82.8679C73.121 83.0791 72.7558 83.2239 72.373 83.2939C71.9903 83.364 71.5975 83.358 71.217 83.2762ZM69.7908 73.6662C69.4434 73.5913 69.0846 73.5855 68.7349 73.6492C68.3852 73.7129 68.0515 73.8449 67.7529 74.0375C67.4542 74.2302 67.1964 74.4799 66.9942 74.7722C66.7921 75.0645 66.6494 75.3938 66.5745 75.7412L65.0845 82.67C60.3435 84.8102 55.2 85.9132 49.9983 85.905C44.4958 85.905 39.277 84.6925 34.5958 82.5237L33.1058 75.595C32.9542 74.894 32.5306 74.2819 31.928 73.8931C31.3254 73.5043 30.5932 73.3705 29.892 73.5212L23.752 74.835C22.6111 73.6653 21.5503 72.42 20.577 71.1075H50.4545C50.792 71.1075 51.0183 71.0462 51.0183 70.74V60.2112C51.0183 59.905 50.7933 59.845 50.4558 59.845H41.717V53.17H51.167C52.0295 53.17 55.7795 53.4162 56.9795 58.1912C57.3545 59.66 58.1795 64.4362 58.7433 65.9662C59.3058 67.6812 61.5933 71.1075 64.0308 71.1075H78.9183C79.087 71.1075 79.2683 71.0875 79.4583 71.0537C78.425 72.4517 77.2934 73.7742 76.072 75.0112L69.7908 73.6662ZM28.4658 83.1325C27.6965 83.298 26.893 83.1514 26.2318 82.7248C25.5706 82.2982 25.1058 81.6266 24.9395 80.8575C24.858 80.4767 24.8523 80.0836 24.9227 79.7007C24.9931 79.3177 25.1383 78.9524 25.3499 78.6255C25.5615 78.2987 25.8354 78.0167 26.156 77.7957C26.4766 77.5747 26.8375 77.419 27.2183 77.3375C27.988 77.1723 28.7918 77.3194 29.4532 77.7464C30.1146 78.1734 30.5795 78.8455 30.7458 79.615C30.8272 79.9957 30.8329 80.3887 30.7624 80.7715C30.6919 81.1544 30.5466 81.5196 30.3348 81.8463C30.1231 82.173 29.849 82.4547 29.5283 82.6754C29.2076 82.8961 28.8466 83.0514 28.4658 83.1325ZM17.1308 37.35C17.2889 37.7057 17.3752 38.0891 17.3848 38.4782C17.3945 38.8674 17.3272 39.2546 17.1869 39.6177C17.0467 39.9808 16.8361 40.3127 16.5674 40.5943C16.2986 40.8759 15.977 41.1017 15.6208 41.2587C14.901 41.5768 14.0845 41.5968 13.3501 41.3142C12.6156 41.0317 12.023 40.4697 11.702 39.7512C11.544 39.3954 11.4577 39.0119 11.4482 38.6227C11.4386 38.2336 11.506 37.8463 11.6464 37.4832C11.7868 37.1201 11.9974 36.7882 12.2663 36.5067C12.5352 36.2251 12.857 35.9994 13.2133 35.8425C14.7133 35.18 16.4658 35.8537 17.1308 37.35ZM13.6483 45.575L20.0445 42.7437C20.3691 42.6005 20.6622 42.3946 20.9071 42.138C21.152 41.8813 21.3438 41.5789 21.4716 41.248C21.5995 40.917 21.6608 40.5642 21.6521 40.2095C21.6433 39.8549 21.5647 39.5055 21.4208 39.1812L20.1033 36.2137H25.2845V59.4762H14.832C13.9054 56.2281 13.4363 52.8665 13.4383 49.4887C13.4383 48.1662 13.5095 46.8587 13.6483 45.5762V45.575ZM41.7183 43.3162V36.4587H54.057C54.6945 36.4587 58.557 37.1925 58.557 40.07C58.557 42.4575 55.5945 43.315 53.157 43.315H41.7195L41.7183 43.3162ZM86.5595 49.4875C86.5595 50.3975 86.5258 51.2975 86.4595 52.1912H82.7083C82.3333 52.1912 82.1808 52.4375 82.1808 52.8037V54.52C82.1808 58.5587 79.8945 59.4375 77.8908 59.6612C75.9833 59.875 73.8683 58.865 73.607 57.7025C72.482 51.3962 70.607 50.05 67.6445 47.7225C71.3195 45.3975 75.1445 41.9675 75.1445 37.3762C75.1445 32.4187 71.732 29.2962 69.407 27.7637C66.1445 25.6225 62.532 25.1937 61.557 25.1937H22.7633C28.1318 19.2164 35.3204 15.1747 43.217 13.6937L47.7908 18.4737C48.2875 18.9916 48.9691 19.2916 49.6865 19.308C50.4038 19.3244 51.0985 19.0559 51.6183 18.5612L56.7345 13.6862C67.4545 15.6737 76.532 22.3225 81.7633 31.4425L78.2595 39.3225C78.116 39.6469 78.0378 39.9964 78.0294 40.3511C78.021 40.7058 78.0826 41.0586 78.2106 41.3894C78.3387 41.7203 78.5307 42.0227 78.7756 42.2793C79.0206 42.5359 79.3137 42.7417 79.6383 42.885L86.3808 45.87C86.4983 47.0625 86.5595 48.2662 86.5595 49.4875ZM47.792 9.62998C48.3622 9.08725 49.1243 8.79264 49.9113 8.81068C50.6983 8.82872 51.446 9.15794 51.9908 9.72623C52.2599 10.0074 52.4708 10.3389 52.6114 10.7018C52.752 11.0646 52.8197 11.4517 52.8104 11.8407C52.8011 12.2298 52.7151 12.6132 52.5573 12.9689C52.3995 13.3247 52.173 13.6457 51.8908 13.9137C51.3209 14.4567 50.559 14.7515 49.7721 14.7334C48.9852 14.7154 48.2376 14.386 47.6933 13.8175C47.4244 13.5362 47.2136 13.2047 47.073 12.8418C46.9325 12.479 46.8649 12.092 46.8742 11.703C46.8835 11.314 46.9695 10.9306 47.1272 10.5749C47.2849 10.2192 47.5112 9.89806 47.7933 9.62998H47.792ZM82.5508 37.4925C82.8713 36.7739 83.4637 36.2117 84.1981 35.9293C84.9325 35.647 85.7489 35.6674 86.4683 35.9862C87.9683 36.6487 88.6433 38.4 87.9783 39.895C87.658 40.6138 87.0657 41.1762 86.3313 41.4589C85.5968 41.7415 84.7803 41.7212 84.0608 41.4025C83.7049 41.245 83.3836 41.019 83.1151 40.7373C82.8466 40.4557 82.6363 40.1239 82.4961 39.7609C82.3559 39.3979 82.2885 39.0109 82.2979 38.6219C82.3073 38.2329 82.3932 37.8495 82.5508 37.4937V37.4925Z" fill="white"/>
</svg>

<svg xmlns="http://www.w3.org/2000/svg" width="100" height="100" fill="none"><path fill="#fff" d="M99.31 48.59l-4.2-2.6c-.03-.4-.07-.8-.11-1.21l3.6-3.35a1.44 1.44 0 00-.47-2.4L93.5 37.3c-.11-.4-.23-.8-.36-1.19l2.88-3.98a1.44 1.44 0 00-.94-2.26l-4.86-.79a40.8 40.8 0 00-.59-1.09l2.05-4.46a1.44 1.44 0 00-1.37-2.04l-4.93.17c-.26-.32-.52-.63-.78-.94l1.13-4.79A1.43 1.43 0 0084 14.21l-4.8 1.13c-.32-.27-.63-.53-.95-.78l.17-4.92a1.45 1.45 0 00-2.04-1.36l-4.49 2.04c-.36-.2-.72-.4-1.09-.58L70 4.89a1.45 1.45 0 00-2.26-.94l-4 2.87c-.4-.13-.79-.24-1.19-.36l-1.72-4.6a1.44 1.44 0 00-2.41-.47l-3.37 3.6c-.4-.05-.81-.1-1.22-.13L51.23.68a1.45 1.45 0 00-2.46 0l-2.6 4.18c-.4.04-.81.08-1.22.12l-3.36-3.6a1.45 1.45 0 00-2.41.49l-1.73 4.6c-.4.1-.8.23-1.19.35l-4-2.87A1.44 1.44 0 0030 4.9l-.79 4.85c-.37.19-.73.38-1.1.58l-4.48-2.04a1.45 1.45 0 00-2.04 1.36l.17 4.92c-.32.25-.63.51-.94.78L16 14.2a1.43 1.43 0 00-1.74 1.73l1.13 4.79c-.26.3-.52.62-.78.94l-4.93-.17a1.45 1.45 0 00-1.5 1.32c-.01.25.03.5.13.71L10.36 28c-.2.36-.4.72-.59 1.1l-4.86.78a1.44 1.44 0 00-.94 2.26l2.87 3.98c-.12.4-.24.79-.36 1.19l-4.6 1.71a1.44 1.44 0 00-.49 2.4L5 44.79c-.04.4-.08.81-.12 1.22l-4.2 2.59a1.44 1.44 0 000 2.44l4.2 2.6c.04.4.08.8.12 1.21l-3.6 3.35a1.44 1.44 0 00.47 2.4l4.61 1.72c.12.4.24.8.37 1.19l-2.88 3.98a1.43 1.43 0 00.94 2.26l4.86.79c.2.36.39.73.59 1.09L8.3 76.08a1.44 1.44 0 001.37 2.04l4.93-.17c.26.32.52.63.78.94l-1.13 4.79A1.44 1.44 0 0016 85.41l4.8-1.13c.32.27.63.52.95.78l-.17 4.91a1.44 1.44 0 002.04 1.36l4.49-2.03c.36.2.72.39 1.1.58l.78 4.84a1.44 1.44 0 002.27.94l4-2.87c.4.13.8.25 1.2.36l1.72 4.6a1.44 1.44 0 001.8.86c.23-.07.44-.2.6-.39l3.37-3.6c.4.05.82.1 1.23.13l2.6 4.18a1.45 1.45 0 002.45 0l2.6-4.18c.4-.04.82-.07 1.22-.12l3.37 3.6a1.44 1.44 0 002.4-.48l1.73-4.6c.4-.11.8-.23 1.2-.36l3.99 2.87a1.45 1.45 0 002.27-.94l.8-4.84c.36-.19.72-.39 1.08-.58l4.49 2.03a1.44 1.44 0 002.04-1.36l-.17-4.91c.32-.26.63-.52.95-.78l4.8 1.13a1.44 1.44 0 001.74-1.73l-1.13-4.79c.26-.31.52-.63.78-.94l4.93.17a1.44 1.44 0 001.37-2.04l-2.05-4.46c.2-.36.4-.73.59-1.1l4.86-.78a1.44 1.44 0 00.94-2.26l-2.88-3.98c.13-.4.25-.8.37-1.19l4.6-1.72a1.44 1.44 0 00.49-2.4L95 54.84c.04-.4.08-.81.12-1.22l4.2-2.59a1.44 1.44 0 000-2.44zm-28.1 34.69a2.96 2.96 0 111.25-5.8 2.96 2.96 0 11-1.24 5.8zm-1.42-9.61a2.7 2.7 0 00-3.22 2.07l-1.49 6.93A36.53 36.53 0 0150 85.9c-5.5 0-10.72-1.2-15.4-3.38l-1.5-6.92a2.7 2.7 0 00-3.2-2.08l-6.15 1.31a36.34 36.34 0 01-3.17-3.72h29.87c.34 0 .57-.06.57-.37V60.21c0-.3-.23-.37-.56-.37h-8.74v-6.67h9.45c.86 0 4.6.25 5.81 5.02.37 1.47 1.2 6.25 1.76 7.78.57 1.71 2.85 5.14 5.3 5.14h14.88c.17 0 .35-.02.54-.06a36.57 36.57 0 01-3.39 3.96l-6.28-1.34zm-41.32 9.46a2.97 2.97 0 11-1.25-5.8 2.97 2.97 0 011.25 5.8zM17.13 37.35a2.96 2.96 0 01-3.78 3.96 2.97 2.97 0 01-1.7-3.83 2.96 2.96 0 011.56-1.64c1.5-.66 3.26.01 3.92 1.51zm-3.48 8.23l6.4-2.84a2.7 2.7 0 001.37-3.56l-1.32-2.97h5.18v23.27H14.83a36.33 36.33 0 01-1.18-13.9zm28.07-2.26v-6.86h12.34c.63 0 4.5.73 4.5 3.61 0 2.39-2.97 3.24-5.4 3.24H41.72zm44.84 6.17c0 .9-.03 1.8-.1 2.7h-3.75c-.38 0-.53.25-.53.61v1.72c0 4.04-2.29 4.92-4.29 5.14-1.9.22-4.02-.8-4.28-1.96-1.13-6.3-3-7.65-5.97-9.98 3.68-2.32 7.5-5.75 7.5-10.34 0-4.96-3.4-8.08-5.73-9.62a16.33 16.33 0 00-7.85-2.57h-38.8a36.55 36.55 0 0120.46-11.5l4.57 4.78a2.71 2.71 0 003.83.1l5.11-4.88a36.59 36.59 0 0125.03 17.75l-3.5 7.88a2.7 2.7 0 001.38 3.56l6.74 2.99c.12 1.2.18 2.4.18 3.62zM47.79 9.63a2.98 2.98 0 014.77 3.34 2.96 2.96 0 01-2.79 1.76 2.97 2.97 0 01-2.64-4.16c.15-.35.38-.67.66-.94zm34.76 27.86a2.97 2.97 0 015.43 2.4 2.97 2.97 0 01-5.43-2.4z"/></svg>
